X:1
T:Erskine, CMD
T:Charles Hutchinson Gabriel, 1912
T:Erskine, CMD
T:Public Domain
C:Charles Hutchinson Gabriel, 1912
Z:Public Domain
%%score ( 1 2 ) ( 3 4 )
L:1/8
M:3/4
K:Bb
V:1 treble 
V:2 treble 
V:3 bass 
V:4 bass 
V:1
 [DF]2 | [DB]3 [DB] [EA][EG] | [EG]>[DF] [DF]2 [B,B]2 | [B,D]>[A,C] [A,C]2 [A,F]2 | [B,D]4 [DF]2 | %5
 [DB]3 [DB] [EA][EG] | [EG]>[DF] [DF]2 [FG]2 | [FA]3 [Fc] [=Ec][CE] | [CF]4 F2 | %9
 [Ec]3 [EA] [DB][Ec] | [DB]>[EG] [DF]2 [DF]2 | [EG]3 [FA] [FB][Gc] | [^Fd]4 [Fd]2 | %13
 [Fe]3 [CF] [CG][FA] | [FB]>[Fc] [Fd]2 F2 | [EG]3 [EB] [DB][Ec] | [DB]4 |] %17
V:2
 x2 | x6 | x6 | x6 | x6 | x6 | x6 | x6 | x4 F2 | x6 | x6 | x6 | x6 | x6 | x4 F2 | x6 | x4 |] %17
V:3
 [B,,B,]2 | [B,,F,]3 [B,,F,] [B,,G,][B,,A,] | [B,,B,]>[B,,B,] [B,,B,]2 [D,F,]2 | F,>F, F,2 F,2 | %4
 [B,,F,]4 [B,,B,]2 | [B,,F,]3 [B,,F,] [B,,G,][B,,A,] | [B,,B,]>[B,,B,] [B,,B,]2 [B,,D]2 | %7
 [C,C]3 [C,A,] [C,G,][C,B,] | [F,A,]4 [F,A,]2 | [F,A,]3 [F,C] [F,B,][F,A,] | %10
 [B,,B,]>[B,,B,] [B,,B,]2 [B,,B,]2 | [E,B,]3 [E,C] [D,B,][E,G,] | [D,A,]4 [D,A,]2 | %13
 [C,A,]3 [F,A,] [=E,B,][_E,C] | [D,B,]>[F,A,] [B,,B,]2 [D,B,]2 | [E,B,]3 [E,G,] F,F, | [B,,F,]4 |] %17
V:4
 x2 | x6 | x6 | F,>F, F,2 F,2 | x6 | x6 | x6 | x6 | x6 | x6 | x6 | x6 | x6 | x6 | x6 | x4 F,F, | %16
 x4 |] %17

